X:1
T:Title
%%score 1 2 3
L:1/8
M:3/2
K:C
V:1 treble nm="Part_1"
V:2 treble-8 nm="Part_2"
V:3 treble-8 nm="Part_3"
V:1
 G8 A4 | G2 F2 A2 _B2 G2 F2 | A4 G6 E2 | D8 E2 F2 | G4 F6 E2 | (3G2 F2 G2 A2 G2 F2 D2 | %6
 E2 F2 E2 D2 ^C2 B,2 | D4 z4 D4 | E6 F2 F2 E2 | G4 A6 G2 | G2 E2 ^F4 (3G2 F2 E2 | G12 :| %12
 G4 E2 D2 F4 | G2 E2 C2 D3 CCB, | D8 F4 | E4 D4 F4 | E2 D4 B,2 (3C2 B,2 C2 | D4 z4 F4 | G4 A6 F2 | %19
 D2 E2 F4 G2 A2 | _B2 A3 G G3 E F2 | G12 || A6 B2 c4 | c2 _B3 A A2 B2 G2 | A4 z4 c4- | %25
 c2 _B2 G2 B2 A4 | G2 A4 F3 E ED | F6 A4 B2 | c2 d4 c4 B2 | c4 z4 _B4 | A4 G4 A4 | %31
 B2 c2 A2 G2 F2 E2 | G12 :| E4 F2 D2 E2 F2 | G2 A c2 _B A2 G3 F | A8 z4 | E2 F2 G2 E2 D4- | %37
 D2 E2 D2 G3 E F2 | G4 z4 E4 | F2 G2 A2 c4 _B2 | G4 A2 c2 _B2 A2- | A2 G2 A4 z4 | _B4 A2 B2 G2 F2 | %43
 G2 E2 D2 G2 F3 E | G12 || d8 d4 | d2 e2 d2 c2 B2 A2 | A6 G2 G2 F2 | A6 B2 c4 | d4 c6 B2 | %50
 d4 c2 B2 A4- | A2 G2 F2 E4 D2 | F4 z4 A2 B2 | c6 _B2 A2 G2 | F2 E2 A4 z4 | F2 G2 A6 G2 | %56
 G2 E2 F4 G2 F2 | G12 :| A4 G2 F2 E4 | D4 z2 G4 F2 | E2 A4 G2 G2 F2 | A4 z4 G4 | F6 G2 A4- | %63
 A2 _B4 A2 G3 F | A6 F2 G2 E2 | F4 z4 _B4 | A4 G6 F2 | F6 E2 E2 D2 | F4 z2 A2 c4- | %69
 c2 _B2 A2 G4 F2 | F2 E2 G4 z4 | E2 F2 G2 A2 c4 | _B2 A3 G G2 F3 E | G12 |] %74
V:2
 d8 e4 | d2 c2 e2 f2 d2 c2 | e4 d6 B2 | A8 B2 c2 | d4 c6 B2 | (3d2 c2 d2 e2 d2 c2 A2 | %6
 B2 c2 B2 A2 ^G2 ^F2 | A4 z4 A4 | B6 c2 c2 B2 | d4 e6 d2 | d2 B2 ^c4 (3d2 c2 B2 | d12 :| d4 B4 c4 | %13
 z2 d2 c2 B2 G2 F2 | A4 F2 G2 A4 | B8 c4 | B4 A4 G4 | A4 z4 d4 | B4 A8 | B4 c4 z4 | %20
 d2 f2 e2 d2 c4 | d12 || e6 f2 g4 | g2 f3 e e2 f2 d2 | e4 z4 g4- | g2 f2 d2 f2 e4 | d2 e4 c3 BBA | %27
 c6 e4 f2 | g2 a4 g4 f2 | g4 z4 f4 | e4 d4 e4 | f2 g2 e2 d2 c2 B2 | d12 :| c6 G2 C4- | C4 z4 G4 | %35
 F8 D4 | C8 G4 | _B6 d2 c2 B2 | d2 e2 f2 e2 c4 | z4 f4 c4 | e4 f2 e2 c2 e2 | d3 c e2 f2 f2 e2 | %42
 g4 f2 d2 z2 c2 | G2 A2 z2 d2 c4 | d12 || a8 a4 | a2 b2 a2 g2 f2 e2 | e6 d2 d2 c2 | e6 f2 g4 | %49
 a4 g6 f2 | a4 g2 f2 e4- | e2 d2 c2 B4 A2 | c4 z4 e2 f2 | g6 f2 e2 d2 | c2 B2 e4 z4 | c2 d2 e6 d2 | %56
 d2 B2 c4 d2 c2 | d12 :| D8 A4 | D4 z4 C2 D2 | A4 d2 e2 d2 c2 | e4 z4 E4 | D8 A4 | D4 F4 G4 | %64
 D4 F4 E4 | D4 z4 G4 | A4 d8 | c4 B6 A2 | c2 f4 e2 c4 | F4 z2 A2 d4 | c4 z2 d2 g2 e2 | c8 c4 | %72
 G2 F2 A2 G2 D2 c2 | d12 |] %74
V:3
[K:F] G8 c4 | B2 A2 c2 d2 B4 | A4 B2 A2 G4 | z2 D4 F2 G2 A2 | B4 A8 | G4 D4 F4 | G4 F4 E4 | D8 F4 | %8
 G8 A4 | G4 c6 B2 | G4 A8 | G12 :| G8 A4 | G4 A2 G2 E4 | D4 z4 D4 | G8 F4 | G4 F2 D2 E4 | D8 D4 | %18
 E4 F8 | G4 A8 | G2 F2 G2 B2 A4 | G12 || A4 c2 d2 e2 c2- | c2 d4 c2 B4 | A8 c4 | c2 d2 B4 c2 A2 | %26
 B2 c4 A2 G4 | F4 z4 c2 d2 | e2 f4 e2 d4 | c8 d4 | c2 A2 B4 A4 | d2 c4 B2 A4 | G12 :| A6 B2 c4 | %34
 c8 B4 | A12 | c8 B4 | G8 A4 | G4 A8 | F8 A4 | c8 c4 | B4 A8 | G4 D2 G4 A2 | B2 c2 B2 G2 A4 | %44
 G12 || d4 f4 e4 | d4 f2 e2 d4 | c8 B4 | A4 z2 d2 e4 | f4 e8 | d8 c4 | A2 B2 A2 F2 G4 | F8 c2 d2 | %53
 e2 c4 d2 c4 | B4 A8 | A2 B2 c8 | B2 G2 A8 | G12 :| d8 c4 | d4 _e6 d2 | c4 B8 | A8 c4 | d8 c4 | %63
 d4 c2 A2 B4 | A8 c4 | d8 d4 | c4 B8 | A4 G8 | F8 A4 | c8 B4 | A4 G8 | A6 F4 A2 | B2 c4 B2 A4 | %73
 G12 |] %74

